la/steam-symbol.svg

<svg xmlns="http://www.w3.org/2000/svg" viewBox="0 0 32 32" height="1em" width="1em">
  <path d="M 22 6 C 18.745659 6 16.09469 8.6041857 16.007812 11.837891 L 12.337891 17.083984 C 12.065931 17.032464 11.786701 17 11.5 17 C 10.551677 17 9.673638 17.297769 8.9472656 17.800781 L 4 15.84375 L 4 21.220703 L 7.1054688 22.449219 C 7.5429388 24.475474 9.3449541 26 11.5 26 C 13.703628 26 15.534282 24.405137 15.917969 22.310547 L 21.691406 17.984375 C 21.794183 17.989633 21.895937 18 22 18 C 25.309 18 28 15.309 28 12 C 28 8.691 25.309 6 22 6 z M 22 8 C 24.206 8 26 9.794 26 12 C 26 14.206 24.206 16 22 16 C 19.794 16 18 14.206 18 12 C 18 9.794 19.794 8 22 8 z M 22 9 A 3 3 0 0 0 22 15 A 3 3 0 0 0 22 9 z M 11.5 18 C 13.43 18 15 19.57 15 21.5 C 15 23.43 13.43 25 11.5 25 C 10.078718 25 8.8581368 24.145398 8.3105469 22.925781 L 10.580078 23.824219 C 10.882078 23.944219 11.192047 24.001953 11.498047 24.001953 C 12.494047 24.001953 13.436219 23.403875 13.824219 22.421875 C 14.333219 21.137875 13.703922 19.683781 12.419922 19.175781 L 10.142578 18.273438 C 10.560118 18.097145 11.019013 18 11.5 18 z"/>
</svg>

<svg xmlns="http://www.w3.org/2000/svg" viewBox="0 0 32 32" height="1em" width="1em">
  <path d="M22 6c-3.254 0-5.905 2.604-5.992 5.838l-3.67 5.246A4.492 4.492 0 0 0 11.5 17c-.948 0-1.826.298-2.553.8L4 15.845v5.377l3.105 1.228A4.504 4.504 0 0 0 11.5 26a4.5 4.5 0 0 0 4.418-3.69l5.773-4.326c.103.006.205.016.309.016 3.309 0 6-2.691 6-6s-2.691-6-6-6zm0 2c2.206 0 4 1.794 4 4s-1.794 4-4 4-4-1.794-4-4 1.794-4 4-4zm0 1a3 3 0 0 0 0 6 3 3 0 0 0 0-6zm-10.5 9c1.93 0 3.5 1.57 3.5 3.5S13.43 25 11.5 25a3.5 3.5 0 0 1-3.19-2.074l2.27.898c.302.12.612.178.918.178a2.5 2.5 0 0 0 .922-4.826l-2.277-.903A3.482 3.482 0 0 1 11.5 18z"/>
</svg>
